source/img/icons/icon-shield.svg

<svg width="38" height="38" viewBox="0 0 38 38" fill="none" xmlns="http://www.w3.org/2000/svg">
<path d="M12.6778 3.77625C10.4158 4.39965 8.16918 5.07751 5.93989 5.80925C5.73633 5.87519 5.55537 5.99698 5.41765 6.16074C5.27992 6.3245 5.19096 6.52365 5.16089 6.7355C3.84514 16.6084 6.88514 23.8118 10.5118 28.557C12.0472 30.5862 13.8781 32.3738 15.9434 33.8604C16.7651 34.4399 17.4919 34.8579 18.0643 35.1263C18.3493 35.2616 18.582 35.3519 18.7601 35.4065C18.838 35.4338 18.9184 35.4537 19 35.4659C19.0807 35.4528 19.1601 35.4329 19.2375 35.4065C19.418 35.3519 19.6508 35.2616 19.9358 35.1263C20.5058 34.8579 21.2349 34.4375 22.0566 33.8604C24.1219 32.3738 25.9528 30.5862 27.4883 28.557C31.1149 23.8141 34.1549 16.6084 32.8391 6.7355C32.8093 6.52355 32.7205 6.32427 32.5827 6.16046C32.4449 5.99666 32.2638 5.87494 32.0601 5.80925C30.514 5.30338 27.9039 4.47925 25.3223 3.77863C22.686 3.06375 20.2611 2.53413 19 2.53413C17.7413 2.53413 15.314 3.06375 12.6778 3.77863V3.77625ZM12.046 1.33C14.6229 0.629375 17.3613 0 19 0C20.6388 0 23.3771 0.629375 25.954 1.33C28.5903 2.0425 31.2479 2.88562 32.8106 3.39625C33.464 3.61202 34.0433 4.00773 34.4819 4.53792C34.9205 5.0681 35.2006 5.71126 35.2901 6.3935C36.7056 17.0264 33.421 24.9066 29.4358 30.1198C27.7458 32.3498 25.7307 34.3137 23.4579 35.9456C22.672 36.5103 21.8393 37.0069 20.9689 37.43C20.3039 37.7435 19.589 38 19 38C18.411 38 17.6985 37.7435 17.0311 37.43C16.1607 37.007 15.328 36.5104 14.5421 35.9456C12.2693 34.3136 10.2543 32.3498 8.56426 30.1198C4.57901 24.9066 1.29439 17.0264 2.70989 6.3935C2.7994 5.71126 3.07954 5.0681 3.51814 4.53792C3.95674 4.00773 4.536 3.61202 5.18939 3.39625C7.45797 2.65242 9.74418 1.96347 12.046 1.33Z" fill="#FE724C"/>
<path d="M25.7783 12.2218C25.8889 12.3321 25.9766 12.4631 26.0365 12.6074C26.0963 12.7517 26.1272 12.9063 26.1272 13.0625C26.1272 13.2187 26.0963 13.3734 26.0365 13.5177C25.9766 13.6619 25.8889 13.793 25.7783 13.9033L18.6533 21.0283C18.543 21.1389 18.4119 21.2266 18.2677 21.2865C18.1234 21.3463 17.9687 21.3772 17.8125 21.3772C17.6563 21.3772 17.5017 21.3463 17.3574 21.2865C17.2131 21.2266 17.0821 21.1389 16.9718 21.0283L13.4093 17.4658C13.2989 17.3554 13.2113 17.2243 13.1515 17.08C13.0918 16.9358 13.061 16.7812 13.061 16.625C13.061 16.4689 13.0918 16.3143 13.1515 16.17C13.2113 16.0258 13.2989 15.8947 13.4093 15.7843C13.5197 15.6739 13.6508 15.5863 13.795 15.5265C13.9393 15.4668 14.0939 15.436 14.25 15.436C14.4062 15.436 14.5608 15.4668 14.705 15.5265C14.8493 15.5863 14.9804 15.6739 15.0908 15.7843L17.8125 18.5084L24.0968 12.2218C24.2071 12.1112 24.3381 12.0235 24.4824 11.9636C24.6267 11.9037 24.7813 11.8729 24.9375 11.8729C25.0937 11.8729 25.2484 11.9037 25.3927 11.9636C25.5369 12.0235 25.668 12.1112 25.7783 12.2218Z" fill="#FE724C"/>
</svg>

<svg xmlns="http://www.w3.org/2000/svg" fill="none" viewBox="0 0 38 38">
  <path fill="#FE724C" d="M12.678 3.776A145.915 145.915 0 0 0 5.94 5.81a1.142 1.142 0 0 0-.78.926c-1.315 9.873 1.725 17.077 5.352 21.822a25.47 25.47 0 0 0 5.431 5.303c.822.58 1.549.998 2.121 1.266.285.136.518.226.696.28.078.028.158.048.24.06.08-.013.16-.033.238-.06.18-.054.413-.144.698-.28.57-.268 1.299-.688 2.12-1.266a25.473 25.473 0 0 0 5.432-5.303c3.627-4.743 6.667-11.949 5.351-21.822a1.14 1.14 0 0 0-.779-.926 145.135 145.135 0 0 0-6.738-2.03c-2.636-.715-5.06-1.245-6.322-1.245-1.259 0-3.686.53-6.322 1.245v-.003Zm-.632-2.446C14.623.63 17.361 0 19 0c1.639 0 4.377.63 6.954 1.33a144.87 144.87 0 0 1 6.857 2.066 3.658 3.658 0 0 1 2.48 2.998c1.415 10.632-1.87 18.513-5.855 23.726a27.968 27.968 0 0 1-5.978 5.826 17.008 17.008 0 0 1-2.49 1.484c-.664.313-1.379.57-1.968.57s-1.302-.257-1.969-.57a16.99 16.99 0 0 1-2.489-1.484 27.971 27.971 0 0 1-5.978-5.826C4.58 24.907 1.294 17.026 2.71 6.393a3.657 3.657 0 0 1 2.48-2.997 148.335 148.335 0 0 1 6.856-2.066Z"/>
  <path fill="#FE724C" d="M25.778 12.222a1.187 1.187 0 0 1 0 1.681l-7.125 7.125a1.188 1.188 0 0 1-1.681 0l-3.563-3.562a1.19 1.19 0 0 1 1.682-1.682l2.722 2.724 6.284-6.286a1.187 1.187 0 0 1 1.681 0Z"/>
</svg>
